design-system/icons/undo--labs-icons.svg

<svg width="22" height="20" viewBox="0 0 22 20" fill="none" xmlns="http://www.w3.org/2000/svg">
<mask id="mask0_234_299" style="mask-type:alpha" maskUnits="userSpaceOnUse" x="0" y="0" width="22" height="22">
<rect width="21.0833" height="21.0833" fill="currentColor"/>
</mask>
<g mask="url(#mask0_234_299)">
<path d="M7.20339 17.3718C6.88128 17.3718 6.60676 17.2583 6.37982 17.0314C6.15288 16.8044 6.03942 16.5299 6.03942 16.2078C6.03942 15.8857 6.15288 15.6112 6.37982 15.3842C6.60676 15.1573 6.88128 15.0438 7.20339 15.0438H12.8256C13.6894 15.0438 14.4252 14.74 15.0328 14.1324C15.6404 13.5248 15.9442 12.7891 15.9442 11.9253C15.9442 11.0614 15.6404 10.3257 15.0328 9.71809C14.4252 9.11048 13.6894 8.80668 12.8256 8.80668H7.20339L8.45521 10.0585C8.67483 10.2781 8.78464 10.5453 8.78464 10.8601C8.78464 11.1749 8.66751 11.4421 8.43325 11.6617C8.21363 11.8813 7.95009 11.9911 7.64263 11.9911C7.33516 11.9911 7.07162 11.8813 6.852 11.6617L3.64558 8.45529C3.52845 8.33816 3.4406 8.21371 3.38204 8.08194C3.32347 7.95017 3.29419 7.80375 3.29419 7.6427C3.29419 7.48165 3.32347 7.33158 3.38204 7.19248C3.4406 7.05339 3.52845 6.92528 3.64558 6.80815L6.83004 3.62369C7.04966 3.40407 7.32052 3.2906 7.64263 3.28328C7.96473 3.27596 8.2356 3.38211 8.45521 3.60173C8.68947 3.82135 8.80294 4.09221 8.79562 4.41432C8.7883 4.73642 8.67483 5.00728 8.45521 5.2269L7.20339 6.47873H12.8256C14.3337 6.47873 15.6184 7.00947 16.6799 8.07096C17.7414 9.13244 18.2721 10.4172 18.2721 11.9253C18.2721 13.4333 17.7414 14.7181 16.6799 15.7796C15.6184 16.841 14.3337 17.3718 12.8256 17.3718H7.20339Z" fill="currentColor"/>
</g>
</svg>

<svg xmlns="http://www.w3.org/2000/svg" width="22" height="20" fill="none" viewBox="0 0 22 20"><mask id="a" width="22" height="22" x="0" y="0" maskUnits="userSpaceOnUse" style="mask-type:alpha"><path fill="currentColor" d="M0 0h21.083v21.083H0z"/></mask><g mask="url(#a)"><path fill="currentColor" d="M7.203 17.372q-.483 0-.823-.34a1.12 1.12 0 0 1-.34-.824q0-.483.34-.824t.823-.34h5.623q1.295 0 2.207-.912a3 3 0 0 0 .911-2.207q0-1.296-.911-2.207a3 3 0 0 0-2.207-.911H7.203l1.252 1.252q.33.33.33.801t-.352.802q-.33.33-.79.33-.461 0-.791-.33L3.646 8.455a1.3 1.3 0 0 1-.264-.373 1.1 1.1 0 0 1-.088-.44 1.15 1.15 0 0 1 .352-.834L6.83 3.624q.33-.33.813-.34.483-.012.812.318.352.33.34.812-.01.483-.34.813L7.203 6.479h5.623q2.262 0 3.854 1.592t1.592 3.854-1.592 3.855-3.854 1.592z"/></g></svg>
